packages/core/src/svgs/bct.svg

<svg width="24" height="24" viewBox="0 0 24 24" fill="none" xmlns="http://www.w3.org/2000/svg">
<g clip-path="url(#clip0_31_6903)">
<path d="M0 0H24V24H0V0Z" fill="#304261"/>
<path d="M11.7 4.58589C11.7801 4.50736 11.8878 4.46338 12 4.46338C12.1121 4.46338 12.2199 4.50736 12.3 4.58589L15.3257 7.6116C15.3659 7.65144 15.3977 7.69884 15.4195 7.75107C15.4413 7.8033 15.4525 7.85931 15.4525 7.91589C15.4525 7.97247 15.4413 8.02848 15.4195 8.08071C15.3977 8.13293 15.3659 8.18033 15.3257 8.22018L12.3043 11.2416C12.2644 11.2818 12.217 11.3137 12.1648 11.3354C12.1126 11.3572 12.0565 11.3684 12 11.3684C11.9434 11.3684 11.8874 11.3572 11.8352 11.3354C11.7829 11.3137 11.7355 11.2818 11.6957 11.2416L8.67426 8.22018C8.63409 8.18033 8.6022 8.13293 8.58045 8.08071C8.55869 8.02848 8.54749 7.97247 8.54749 7.91589C8.54749 7.85931 8.55869 7.8033 8.58045 7.75107C8.6022 7.69884 8.63409 7.65144 8.67426 7.6116L11.6957 4.59017L11.7 4.58589Z" fill="#FEFEFE"/>
<path d="M15.78 8.67413C15.8199 8.63396 15.8673 8.60208 15.9195 8.58032C15.9717 8.55857 16.0277 8.54736 16.0843 8.54736C16.1409 8.54736 16.1969 8.55857 16.2491 8.58032C16.3014 8.60208 16.3488 8.63396 16.3886 8.67413L19.41 11.6956C19.4502 11.7354 19.4821 11.7828 19.5038 11.835C19.5256 11.8873 19.5368 11.9433 19.5368 11.9998C19.5368 12.0564 19.5256 12.1124 19.5038 12.1647C19.4821 12.2169 19.4502 12.2643 19.41 12.3041L16.3886 15.3256C16.3488 15.3657 16.3014 15.3976 16.2491 15.4194C16.1969 15.4411 16.1409 15.4523 16.0843 15.4523C16.0277 15.4523 15.9717 15.4411 15.9195 15.4194C15.8673 15.3976 15.8199 15.3657 15.78 15.3256L12.7586 12.3041C12.7184 12.2643 12.6865 12.2169 12.6648 12.1647C12.643 12.1124 12.6318 12.0564 12.6318 11.9998C12.6318 11.9433 12.643 11.8873 12.6648 11.835C12.6865 11.7828 12.7184 11.7354 12.7586 11.6956L15.78 8.67413ZM11.7 12.7584C11.7801 12.6799 11.8878 12.6359 12 12.6359C12.1122 12.6359 12.2199 12.6799 12.3 12.7584L15.3257 15.7798C15.3659 15.8197 15.3978 15.8671 15.4196 15.9193C15.4413 15.9715 15.4525 16.0276 15.4525 16.0841C15.4525 16.1407 15.4413 16.1967 15.4196 16.249C15.3978 16.3012 15.3659 16.3486 15.3257 16.3884L12.3043 19.4098C12.2645 19.45 12.2171 19.4819 12.1648 19.5037C12.1126 19.5254 12.0566 19.5366 12 19.5366C11.9435 19.5366 11.8874 19.5254 11.8352 19.5037C11.783 19.4819 11.7356 19.45 11.6957 19.4098L8.67431 16.3884C8.63414 16.3486 8.60226 16.3012 8.5805 16.249C8.55874 16.1967 8.54754 16.1407 8.54754 16.0841C8.54754 16.0276 8.55874 15.9715 8.5805 15.9193C8.60226 15.8671 8.63414 15.8197 8.67431 15.7798L11.6957 12.7584H11.7ZM7.61146 8.67413C7.6513 8.63396 7.6987 8.60208 7.75092 8.58032C7.80315 8.55857 7.85916 8.54736 7.91574 8.54736C7.97232 8.54736 8.02833 8.55857 8.08056 8.58032C8.13279 8.60208 8.18019 8.63396 8.22003 8.67413L11.2415 11.6956C11.2816 11.7354 11.3135 11.7828 11.3353 11.835C11.357 11.8873 11.3682 11.9433 11.3682 11.9998C11.3682 12.0564 11.357 12.1124 11.3353 12.1647C11.3135 12.2169 11.2816 12.2643 11.2415 12.3041L8.22003 15.3256C8.18019 15.3657 8.13279 15.3976 8.08056 15.4194C8.02833 15.4411 7.97232 15.4523 7.91574 15.4523C7.85916 15.4523 7.80315 15.4411 7.75092 15.4194C7.6987 15.3976 7.6513 15.3657 7.61146 15.3256L4.59003 12.3041C4.54986 12.2643 4.51798 12.2169 4.49622 12.1647C4.47446 12.1124 4.46326 12.0564 4.46326 11.9998C4.46326 11.9433 4.47446 11.8873 4.49622 11.835C4.51798 11.7828 4.54986 11.7354 4.59003 11.6956L7.61146 8.67413Z" fill="#00A0E1"/>
</g>
<defs>
<clipPath id="clip0_31_6903">
<rect width="24" height="24" fill="white"/>
</clipPath>
</defs>
</svg>

<svg xmlns="http://www.w3.org/2000/svg" width="24" height="24" fill="none" viewBox="0 0 24 24"><g clip-path="url(#a)"><path fill="#304261" d="M0 0h24v24H0z"/><path fill="#FEFEFE" d="M11.7 4.586a.43.43 0 0 1 .6 0l3.026 3.026a.43.43 0 0 1 0 .608l-3.022 3.022a.43.43 0 0 1-.608 0L8.674 8.22a.43.43 0 0 1 0-.608l3.022-3.022z"/><path fill="#00A0E1" d="M15.78 8.674a.43.43 0 0 1 .609 0l3.021 3.022a.427.427 0 0 1 0 .608l-3.021 3.022a.43.43 0 0 1-.609 0l-3.021-3.022a.427.427 0 0 1 0-.608zm-4.08 4.084a.43.43 0 0 1 .6 0l3.026 3.022a.43.43 0 0 1 0 .608l-3.022 3.022a.43.43 0 0 1-.608 0l-3.022-3.022a.43.43 0 0 1 0-.608l3.022-3.022zM7.611 8.674a.43.43 0 0 1 .609 0l3.021 3.022a.43.43 0 0 1 0 .608L8.22 15.326a.43.43 0 0 1-.609 0L4.59 12.304a.43.43 0 0 1 0-.608z"/></g><defs><clipPath id="a"><path fill="#fff" d="M0 0h24v24H0z"/></clipPath></defs></svg>
